src/svg/flow-children.svg

<svg version="1.2" baseProfile="tiny" xmlns="http://www.w3.org/2000/svg" width="24" height="24" viewBox="0 0 24 24"><path d="M17 16c-1.305 0-2.403.837-2.816 2h-3.184c-1.654 0-3-1.346-3-3v-3.025c.838.634 1.87 1.025 3 1.025h3.184c.413 1.163 1.512 2 2.816 2 1.657 0 3-1.343 3-3s-1.343-3-3-3c-1.305 0-2.403.837-2.816 2h-3.184c-1.654 0-3-1.346-3-3v-.184c1.163-.413 2-1.512 2-2.816 0-1.657-1.343-3-3-3s-3 1.343-3 3c0 1.304.837 2.403 2 2.816v7.184c0 2.757 2.243 5 5 5h3.184c.413 1.163 1.512 2 2.816 2 1.657 0 3-1.343 3-3s-1.343-3-3-3zm0-5c.552 0 1 .449 1 1s-.448 1-1 1-1-.449-1-1 .448-1 1-1zm-10-7c.552 0 1 .449 1 1s-.448 1-1 1-1-.449-1-1 .448-1 1-1zm10 16c-.552 0-1-.449-1-1s.448-1 1-1 1 .449 1 1-.448 1-1 1z"/></svg>

<?xml version="1.0" encoding="iso-8859-1"?>
<!-- Generator: Adobe Illustrator 16.2.1, SVG Export Plug-In . SVG Version: 6.00 Build 0)  -->
<svg version="1.2" baseProfile="tiny" id="Layer_1" xmlns="http://www.w3.org/2000/svg" xmlns:xlink="http://www.w3.org/1999/xlink"
	 x="0px" y="0px" width="24px" height="24px" viewBox="0 0 24 24" xml:space="preserve">
<path d="M17,16c-1.305,0-2.403,0.837-2.816,2H11c-1.654,0-3-1.346-3-3v-3.025C8.838,12.609,9.87,13,11,13h3.184
	c0.413,1.163,1.512,2,2.816,2c1.657,0,3-1.343,3-3s-1.343-3-3-3c-1.305,0-2.403,0.837-2.816,2H11c-1.654,0-3-1.346-3-3V7.816
	C9.163,7.403,10,6.304,10,5c0-1.657-1.343-3-3-3S4,3.343,4,5c0,1.304,0.837,2.403,2,2.816V15c0,2.757,2.243,5,5,5h3.184
	c0.413,1.163,1.512,2,2.816,2c1.657,0,3-1.343,3-3S18.657,16,17,16z M17,11c0.552,0,1,0.449,1,1s-0.448,1-1,1s-1-0.449-1-1
	S16.448,11,17,11z M7,4c0.552,0,1,0.449,1,1S7.552,6,7,6S6,5.551,6,5S6.448,4,7,4z M17,20c-0.552,0-1-0.449-1-1s0.448-1,1-1
	s1,0.449,1,1S17.552,20,17,20z"/>
</svg>
